2024/special/img/under_line_mobile/icon_left.svg

<svg width="135" height="26" viewBox="0 0 135 26" fill="none" xmlns="http://www.w3.org/2000/svg">
<path d="
    M5 22.5
    L0 20.1132
    V25.8868
    L5 23.5
    V22.5
    Z
    M4.5 23.5
    H111.4142
    V22.5
    H4.5
    V23.5
    Z
    M111.4142 23.5
    L132.4142 2.5
    H131
    L110 23.5
    Z" fill="black"/>
</svg>

<svg xmlns="http://www.w3.org/2000/svg" width="135" height="26" fill="none" viewBox="0 0 135 26"><path fill="#000" d="m5 22.5-5-2.39v5.78l5-2.39zm-.5 1h106.91v-1H4.5zm106.91 0 21-21H131l-21 21Z"/></svg>
